X: 20412
M: 2/4
L: 1/16
K: D
(3(ABc) |\
d2AG FDFA | BGBd cAce | fdge afed | c2e2 egfe |\
d2AG FDFA | BGBd cAce | fdge faec | d2d2d2 :|
|: (3(fga) |\
b2ag fdfa | g2ed cAce | fdge afed | c2A2 A2dc |\


